picto/loading-ramp-for-lorries-right-framed.svg

<svg class="color-immutable" width="30" height="30" viewBox="0 0 30 30" fill="none" xmlns="http://www.w3.org/2000/svg"><path d="M30.0021 0H0.0020752V30H30.0021V0Z" fill="#2D327D"/><path d="M25.5021 3C26.3271 3 27.0021 3.675 27.0021 4.5V25.5C27.0021 26.325 26.3271 27 25.5021 27H4.50208C3.67708 27 3.00208 26.325 3.00208 25.5V4.5C3.00208 3.675 3.67708 3 4.50208 3H25.5021ZM25.5021 2.625H4.50208C3.4682 2.625 2.62708 3.46613 2.62708 4.5V25.5C2.62708 26.5339 3.4682 27.375 4.50208 27.375H25.5021C26.536 27.375 27.3771 26.5339 27.3771 25.5V4.5C27.3771 3.46613 26.536 2.625 25.5021 2.625Z" fill="white"/><path d="M18.0749 14.175C16.7909 14.175 15.7499 15.216 15.7499 16.5C15.7499 17.0715 15.9561 17.595 16.2989 18C16.7249 18.5048 17.3624 18.825 18.0749 18.825C18.7874 18.825 19.4249 18.5048 19.8509 18C20.1936 17.595 20.3999 17.0715 20.3999 16.5C20.3999 15.216 19.3589 14.175 18.0749 14.175ZM18.0749 17.7C17.4119 17.7 16.8749 17.163 16.8749 16.5C16.8749 15.837 17.4119 15.3 18.0749 15.3C18.7379 15.3 19.2749 15.837 19.2749 16.5C19.2749 17.163 18.7379 17.7 18.0749 17.7Z" fill="white"/><path d="M14.6263 15.6H6.00134V17.1H14.6263V15.6Z" fill="white"/><path d="M23.9541 10.8255L23.2783 8.34975C23.1201 7.76025 22.5853 7.35 21.9741 7.35H15.7506L15.7476 14.2672C16.3341 13.656 17.1598 13.275 18.0748 13.275C19.8523 13.275 21.2938 14.7127 21.2998 16.4887V16.5V16.725C21.2998 16.9321 21.4677 17.1 21.6748 17.1H23.6248C23.8319 17.1 23.9998 16.9321 23.9998 16.725L24.0006 16.5V11.175C24.0006 11.0572 23.9848 10.9395 23.9541 10.8255ZM22.05 8.025C22.3215 8.025 22.5561 8.20725 22.6266 8.46975L23.1628 10.4775C23.1711 10.5097 23.1756 10.542 23.1756 10.575C23.1756 10.782 23.0076 10.95 22.8006 10.95H18.0006C17.7936 10.95 17.6256 10.782 17.6256 10.575V8.4C17.6256 8.193 17.7936 8.025 18.0006 8.025H22.05Z" fill="white"/><path d="M5.99988 19.1998H24V20.3251H5.99988V19.1998Z" fill="white"/><path d="M5.99988 23.3251H24V24H5.99988V23.3251Z" fill="white"/><path d="M22.5019 21.7868C22.5019 21.187 22.0151 20.7005 21.414 20.7005C20.8138 20.7005 20.327 21.187 20.327 21.7868C20.327 22.3875 20.8138 22.875 21.414 22.875C22.0151 22.875 22.5019 22.3875 22.5019 21.7868Z" fill="white"/><path d="M19.5779 21.7868C19.5779 21.187 19.0901 20.7005 18.4901 20.7005C17.8899 20.7005 17.4021 21.187 17.4021 21.7868C17.4021 22.3875 17.8899 22.875 18.4901 22.875C19.0901 22.875 19.5779 22.3875 19.5779 21.7868Z" fill="white"/><path d="M12.602 21.7868C12.602 21.187 12.1151 20.7005 11.5141 20.7005C10.9139 20.7005 10.4271 21.187 10.4271 21.7868C10.4271 22.3875 10.9139 22.875 11.5141 22.875C12.1151 22.875 12.602 22.3875 12.602 21.7868Z" fill="white"/><path d="M9.6779 21.7868C9.6779 21.187 9.1901 20.7005 8.5901 20.7005C7.98988 20.7005 7.50208 21.187 7.50208 21.7868C7.50208 22.3875 7.98988 22.875 8.5901 22.875C9.1901 22.875 9.6779 22.3875 9.6779 21.7868Z" fill="white"/><path d="M5.99988 14.8458L14.6249 14.85C14.6249 14.85 14.6249 9 14.6249 6.375C14.6249 6.16793 14.457 6 14.2499 6H5.99988L6.00003 8.025H11.7C11.9071 8.025 12.075 8.19292 12.075 8.4C12.075 8.60708 11.9071 8.775 11.7 8.775H6.00003V9.525H11.7C11.9071 9.525 12.075 9.69293 12.075 9.9C12.075 10.1071 11.9071 10.275 11.7 10.275H6.00003L5.99988 14.8458Z" fill="white"/></svg>

<svg class="color-immutable" width="30" height="30" viewBox="0 0 30 30" fill="none" xmlns="http://www.w3.org/2000/svg"><g clip-path="url(#a)"><path d="M30.002 0h-30v30h30V0Z" fill="#2D327D"/><path d="M25.502 3c.825 0 1.5.675 1.5 1.5v21c0 .825-.675 1.5-1.5 1.5h-21c-.825 0-1.5-.675-1.5-1.5v-21c0-.825.675-1.5 1.5-1.5h21Zm0-.375h-21A1.877 1.877 0 0 0 2.627 4.5v21c0 1.034.841 1.875 1.875 1.875h21a1.877 1.877 0 0 0 1.875-1.875v-21a1.877 1.877 0 0 0-1.875-1.875Z" fill="#fff"/><path d="M18.075 14.175a2.325 2.325 0 1 0 0 4.65 2.325 2.325 0 0 0 0-4.65Zm0 3.525a1.2 1.2 0 1 1 0-2.4 1.2 1.2 0 0 1 0 2.4ZM14.626 15.6H6.001v1.5h8.625v-1.5Z" fill="#fff"/><path d="m23.954 10.825-.676-2.475a1.35 1.35 0 0 0-1.304-1h-6.223l-.003 6.917A3.225 3.225 0 0 1 21.3 16.49V16.725c0 .207.168.375.375.375h1.95a.375.375 0 0 0 .375-.375v-5.55c0-.118-.015-.236-.046-.35Zm-1.904-2.8c.271 0 .506.182.577.445l.536 2.007a.375.375 0 0 1-.362.473H18a.375.375 0 0 1-.375-.375V8.4c0-.207.168-.375.375-.375h4.049ZM6 19.2h18v1.125H6V19.2ZM6 23.325h18V24H6v-.675ZM22.502 21.787a1.087 1.087 0 1 0-2.174.001 1.087 1.087 0 0 0 2.174-.001ZM19.578 21.787a1.088 1.088 0 1 0-2.175.002 1.088 1.088 0 0 0 2.175-.002ZM12.602 21.787a1.087 1.087 0 1 0-2.174.001 1.087 1.087 0 0 0 2.174-.001ZM9.678 21.787a1.088 1.088 0 1 0-2.175.002 1.088 1.088 0 0 0 2.175-.002ZM6 14.846l8.625.004V6.375A.375.375 0 0 0 14.25 6H6v2.025h5.7a.375.375 0 0 1 0 .75H6v.75h5.7a.375.375 0 0 1 0 .75H6v4.57Z" fill="#fff"/></g><defs><clipPath id="a"><path fill="#fff" d="M0 0h30v30H0z"/></clipPath></defs></svg>
